X:3
T:Bill Sullivan's Polka
M:2/4
L:1/8
S:Ir Music Trad Session Tunes #1-of-3
R:Polka
O:Ireland
D:Kevin Burke 
Z:Richard Robinson <richard@beulah.demon.co.uk>
K:A
a2 a>f|ec a>f|ec a>f|ec BA|\
a2 a>f|ec a>f|ce B>c|BA A2:|
|:ce e/2c/2A/2c/2|df f>d|ce e/2c/2A/2B/2|cB BA/B/|
ce e/c/A/c/|df f>d|ce B>c |BA A2:|
